X: 16819
T: Harsh February, The
R: reel
M: 4/4
K: Dmajor
%%measurenb <5>
% TUNEdb Number 14026
FABd B2 AF|ABdf e2 df|f2 ed BddB|ABDE FE E2|
FABd B2 AF|ABdf e2 df|f2 ed bafa|1 afef d2 BA:|2 afef defa||
|:bdda b2 af|d2 ed fdBA|FABd ABda|afde fe e2|
bdda b2 ad|d2 ed fdBA|FABd ABda|1 afdf defa:|2 afdf d2 BA||

